img/tulip/home-project-logo.svg

<svg fill="none" height="45" viewBox="0 0 160 45" width="160" xmlns="http://www.w3.org/2000/svg"><path clip-rule="evenodd" d="m19.7238 23.9555 12.3026-12.0104-12.3026-11.9451-12.36931 11.9451zm49.6115-12.3999v21.7483h-4.7472v-21.7483h-7.4885v-3.8952h20.1254l-.6018 3.8952zm31.7597 13.4385c0 6.1025-3.2097 8.6993-9.1604 8.6993h-1.7384c-5.8839 0-9.1601-2.5968-9.1601-8.6993v-17.26878h4.7472v17.20388c0 2.9214.6686 4.9988 4.7472 4.9988h1.0698c4.0785 0 4.6803-2.0774 4.6803-4.9988v-17.20388h4.8144zm23.669 4.5444v3.8303h-17.05v-25.64348h4.747v21.81318zm9.895-21.81318v25.64348h-4.747v-25.64348zm11.768 15.58088v9.9977h-4.747v-25.6435h9.828c6.285 0 8.492 1.62301 8.492 7.0114v1.9476c0 4.7392-2.407 6.6868-8.291 6.6868zm4.747-3.7654c3.41 0 4.012-.7141 4.012-2.9863h.067v-1.8178c0-2.467-.535-3.246-4.012-3.246h-4.814v8.0501zm-111.8594 8.245v-16.9442l-17.3839 16.9442v16.9442zm-21.8639 0v16.9442l-17.4507-16.9442v-16.9442z" fill="#282726" fill-rule="evenodd"/></svg>

<svg width="160" height="45" viewBox="0 0 160 45" fill="none" xmlns="http://www.w3.org/2000/svg">
<path fill-rule="evenodd" clip-rule="evenodd" d="M19.7238 23.9555L32.0264 11.9451L19.7238 0L7.35449 11.9451L19.7238 23.9555ZM69.3353 11.5556V33.3039H64.5881V11.5556H57.0996V7.6604H77.225L76.6232 11.5556H69.3353ZM101.095 24.9941C101.095 31.0966 97.8853 33.6934 91.9346 33.6934H90.1962C84.3123 33.6934 81.0361 31.0966 81.0361 24.9941V7.72532H85.7833V24.9292C85.7833 27.8506 86.4519 29.928 90.5305 29.928H91.6003C95.6788 29.928 96.2806 27.8506 96.2806 24.9292V7.72532H101.095V24.9941ZM124.764 29.5385V33.3688H107.714V7.72532H112.461V29.5385H124.764ZM134.659 7.72532V33.3688H129.912V7.72532H134.659ZM146.427 23.3062V33.3039H141.68V7.6604H151.508C157.793 7.6604 160 9.28341 160 14.6718V16.6194C160 21.3586 157.593 23.3062 151.709 23.3062H146.427ZM151.174 19.5408C154.584 19.5408 155.186 18.8267 155.186 16.5545H155.253V14.7367C155.253 12.2697 154.718 11.4907 151.241 11.4907H146.427V19.5408H151.174ZM39.3146 27.7858V10.8416L21.9307 27.7858V44.73L39.3146 27.7858ZM17.4507 27.7858V44.73L0 27.7858V10.8416L17.4507 27.7858Z" fill="#282726"/>
</svg>
